X:1
T: The Cumberland Reel
C:
R:Jig
Q:180
K:D
M:6/8
L:1/16
A2|f4e2 d4c2|d4B2 A4F2|G2F2G2 E2F2G2|F4G2 A4A2|B4G2 d4B2|A4F2 d4d2|c2d2e2 A2B2c2|d6 d4A2|
f4e2 d4c2|d4B2 A4F2|G2F2G2 E2F2G2|F4G2 A4A2|B4G2 d4B2|A4F2 d4d2|c2d2e2 A2B2c2|d6 d4e2|
f4f2 f4e2|f4f2 f4e2|f4f2 g4f2|e4e2 e4c2|d4d2 d4c2|d4d2 d4c2|d4B2 e4d2|c4B2 A2B2c2|
d4d2 c2B2A2|B4c2 d4A2|d2e2d2 c2B2A2|B4c2 d4f2|e4e2 e4e2|e4e2 e2f2g2|a4A2 A2B2c2|d6 d4||
